X: 140
T:Missa La sol fa re mi / Agnus Dei
N: Derived from Jos1102e-Missa_La_sol_fa_re_mi-Agnus.krn
C: Josquin des Prez
%%abc-version 2.0
%%abcx-abcm2ps-target-version 5.9.1 (29 Sep 2008)
%%abc-creator hum2abc beta
%%abcx-conversion-date 2019/02/12 16:15:45
%%abc-edited-by Jesse Rodin
%%abc-edited-by Jesse Rodin; Victoria Chang 2011/05/10
%%abcx-initial-encoding-date 2011/05/10/
%%humdrum-veritas 1128498001
%%humdrum-veritas-data 1942023511
%%linebreak <none>
%%barnumbers 0
L: 1/4
M: 3/1
Q: 1/2=120
%%staves [1 2 3 4]
V: 1 clef=treble
V: 2 clef=treble-8
V: 3 clef=treble-8
V: 4 clef=bass
K: C
[V:1] z12 | 
[V:2] e12- | 
[V:3] A12 | 
[V:4] A,,12 | 
[V:1] z12 | 
[V:2] e4d8 | 
[V:3] G4F4D4 | 
[V:4] C,4D,8 | 
[V:1] A12 | 
[V:2] c8A4 | 
[V:3] E8e4- | 
[V:4] A,,12 | 
[V:1] G6F2D4 | 
[V:2] B12 | 
[V:3] e4d8 | 
[V:4] E,3F,G,4G,,4 | 
[V:1] E8A4 | 
[V:2] z2G2c6d2 | 
[V:3] c4A8 | 
[V:4] C,6D,2F,4 | 
[V:1] G8F4 | 
[V:2] e4z2E2F2D2 | 
[V:3] B4e4d4- | 
[V:4] E,4C,4D,4- | 
[V:1] D4E4A4 | 
[V:2] F3GA3Bc2d2 | 
[V:3] d4c4A4 | 
[V:4] D,4A,,4F,4 | 
[V:1] G8F4 | 
[V:2] e4z2E2F2D2 | 
[V:3] B4e4d4- | 
[V:4] E,4C,4D,4 | 
[V:1] D4E8 | 
[V:2] F3GA3Bcde2 | 
[V:3] d4c8- | 
[V:4] B,,4A,,8- | 
[V:1] z2A2A2A2E2E2 | 
[V:2] A3Bc4z2e2 | 
[V:3] c4A8 | 
[V:4] A,,4z2A,2A,2A,2 | 
[V:1] G3FD2G2F2D2- | 
[V:2] e2e2B2B2d3c | 
[V:3] B8z4 | 
[V:4] E,2E,2G,3F,D,2G,2 | 
[V:1] DEFGA3GE2A2 | 
[V:2] A2d2c2A3Bcd | 
[V:3] z12 | 
[V:4] F,2D,3E,F,G,A,3G, | 
[V:1] G2E3FG2A4 | 
[V:2] e2c3AB2c2d2 | 
[V:3] z12 | 
[V:4] E,2A,4G,2F,2D,2 | 
[V:1] G2E3DF3EDC | 
[V:2] B2c3Bd3cBA | 
[V:3] z12 | 
[V:4] E,2A,2G,2F,2D,4 | 
[V:1] B,2E3DCA,B,4 | 
[V:2] G3FG2A4^G2 | 
[V:3] e8d4 | 
[V:4] E,8z4 | 
[V:1] z2A,2C4D3E | 
[V:2] A2e4f2g4 | 
[V:3] c4A4B4 | 
[V:4] A,8G,4 | 
[V:1] F2C2F4G4 | 
[V:2] c4d4B4 | 
[V:3] A8G4 | 
[V:4] F,4D,4E,4 | 
[V:1] A3FF4G4 | 
[V:2] c4d4B4 | 
[V:3] F4D4E4 | 
[V:4] A,8G,4 | 
[V:1] z2C2F4G4 | 
[V:2] c4d4B4 | 
[V:3] A8G4 | 
[V:4] F,4D,4E,4 | 
[V:1] A3GFDF2E2B2 | 
[V:2] c4d4B2e2- | 
[V:3] F4D4E4 | 
[V:4] A,8G,4 | 
[V:1] c2d3cBAG2A2 | 
[V:2] edf3edcB2c2- | 
[V:3] z12 | 
[V:4] F,4D,4E,2A,2- | 
[V:1] E2B2c2d3cBA | 
[V:2] cde3df3edc | 
[V:3] z12 | 
[V:4] A,2G,2F,4D,4 | 
[V:1] G8z2E2 | 
[V:2] B4z2B2cAcd | 
[V:3] z2e4d2c2A2 | 
[V:4] E,4G,4A,4 | 
[V:1] G2E2G3AB4 | 
[V:2] e8z2B2 | 
[V:3] B4z2e4d2 | 
[V:4] E,4z2C,2G,4 | 
[V:1] z2E2G2E2G3A | 
[V:2] cAcde4z2g2 | 
[V:3] c2A2B4z2e2- | 
[V:4] A,4E,4z2C,2 | 
[V:1] BcB3AA2G2c2- | 
[V:2] g2g2f2d2e2g2 | 
[V:3] e2d3cA2B2e2- | 
[V:4] G,3F,D,2F,2E,2C,2 | 
[V:1] cBB3AA3^GG^F | 
[V:2] g2g2f2d2e4 | 
[V:3] e2d3cA2B4 | 
[V:4] G,3F,D,2F,2E,4 | 
[V:1] A12 ||  
[V:2] e12 ||  
[V:3] A12 ||  
[V:4] A,,12 ||  
[V:1]  [K:C] [K:clef=treble][M:3/1]B8c4 | 
[V:2]  [K:C] [K:clef=treble-8][M:3/1]e12- | 
[V:3]  [K:C] [K:clef=treble-8][M:3/1]z12 | 
[V:4]  [K:C] [K:clef=bass][M:3/1]z12 | 
[V:1] B2c3BG2A2B2 | 
[V:2] e8d4 | 
[V:3] z12 | 
[V:4] z12 | 
[V:1] E4z4G4 | 
[V:2] c6A2B4 | 
[V:3] z12 | 
[V:4] z12 | 
[V:1] A2B4c2B2c2- | 
[V:2] z4e8- | 
[V:3] z12 | 
[V:4] z12 | 
[V:1] c2BAG2C2D2F2 | 
[V:2] e8d4 | 
[V:3] z12 | 
[V:4] z12 | 
[V:1] E4z4G4 | 
[V:2] c6A2B4 | 
[V:3] z12 | 
[V:4] z12 | 
[V:1] A2G2A2c4BA | 
[V:2] z2e2d2c2A4 | 
[V:3] z12 | 
[V:4] z12 | 
[V:1] G4C4z2G2 | 
[V:2] B2e3dc2A2B2 | 
[V:3] z12 | 
[V:4] z12 | 
[V:1] A2G4E2F2G2- | 
[V:2] z2e3dc2A2B2 | 
[V:3] z12 | 
[V:4] z12 | 
[V:1] G2c2B2A3GG2- | 
[V:2] e4d2c2A2B2 | 
[V:3] z12 | 
[V:4] z12 | 
[V:1] G2F2E2C2D4 | 
[V:2] e2d3cA2B4 | 
[V:3] z12 | 
[V:4] z12 | 
[V:1] z2C2D2E3CD2 | 
[V:2] e4d2c2A2B2 | 
[V:3] z12 | 
[V:4] z12 | 
[V:1] E2C2D2E2F2G2- | 
[V:2] z2e2d2c2A2B2 | 
[V:3] z12 | 
[V:4] z12 | 
[V:1] G2C2D2E2F2G2 | 
[V:2] e4d2c2A2B2 | 
[V:3] z12 | 
[V:4] z12 | 
[V:1] A2C2D2E2F2G2 | 
[V:2] z2e2d2c2A2B2 | 
[V:3] z12 | 
[V:4] z12 | 
[V:1] A2B2c2B3AA2- | 
[V:2] z2e4d2c2A2 | 
[V:3] z12 | 
[V:4] z12 | 
[V:1] A2G2F4E4 | 
[V:2] B2e4d2c2A2 | 
[V:3] z12 | 
[V:4] z12 | 
[V:1] D2C2B,4A,2D2 | 
[V:2] B2e4d2cAB2 | 
[V:3] z12 | 
[V:4] z12 | 
[V:1] C2F2E2A2G2c2- | 
[V:2] e2d2c2A2[M:3/1](3B2e3d | 
[V:3] z12 | 
[V:4] z12 | 
[V:1] cBA4^G2A4 ||  
[V:2] (3:2:5d4c2A2B4A6 ||  
[V:3] z12 ||  
[V:4] z12 ||  



